theme/icons/maximize-alt.svg

<svg fill="none" height="24" viewBox="0 0 24 24" width="24" xmlns="http://www.w3.org/2000/svg"><g fill="#f4f4f7"><path d="m3 3h6v2h-2.53827l4.84297 4.84298-1.4142 1.41422-4.8905-4.8905v2.6333h-2z"/><path d="m3 21h6v-2h-2.6236l4.9282-4.9282-1.41422-1.4142-4.89038 4.8904v-2.548h-2z"/><path d="m15 21h6v-6h-2v2.5244l-4.8668-4.8668-1.4142 1.4142 4.9282 4.9282h-2.6472z"/><path d="m21 3h-6v2h2.5619l-4.843 4.84301 1.4142 1.41419 4.8669-4.86688v2.60968h2z"/></g></svg>

<svg fill="none" height="24" width="24" xmlns="http://www.w3.org/2000/svg">
    <path d="M3 3h6v2H6.462l4.843 4.843-1.414 1.414L5 6.367V9H3zm0 18h6v-2H6.376l4.929-4.928-1.415-1.414L5 17.548V15H3zm12 0h6v-6h-2v2.524l-4.867-4.866-1.414 1.414L17.647 19H15zm6-18h-6v2h2.562l-4.843 4.843 1.414 1.414L19 6.39V9h2z" fill="#f4f4f7"/>
</svg>
